contributed-vectors/opendocument_reader.svg

<?xml version="1.0" encoding="UTF-8" standalone="no"?>
<svg
   xmlns:dc="http://purl.org/dc/elements/1.1/"
   xmlns:cc="http://creativecommons.org/ns#"
   xmlns:rdf="http://www.w3.org/1999/02/22-rdf-syntax-ns#"
   xmlns:svg="http://www.w3.org/2000/svg"
   xmlns="http://www.w3.org/2000/svg"
   xmlns:sodipodi="http://sodipodi.sourceforge.net/DTD/sodipodi-0.dtd"
   xmlns:inkscape="http://www.inkscape.org/namespaces/inkscape"
   width="192"
   height="192"
   version="1.1"
   viewBox="0 0 192 192"
   id="svg30"
   sodipodi:docname="opendocument_reader.svg"
   inkscape:version="1.0.1 (3bc2e813f5, 2020-09-07)"
   inkscape:export-filename="/home/jphilippe/github/delta/android/contributed-vectors/opendocument_reader.png"
   inkscape:export-xdpi="96"
   inkscape:export-ydpi="96">
  <metadata
     id="metadata36">
    <rdf:RDF>
      <cc:Work
         rdf:about="">
        <dc:format>image/svg+xml</dc:format>
        <dc:type
           rdf:resource="http://purl.org/dc/dcmitype/StillImage" />
      </cc:Work>
    </rdf:RDF>
  </metadata>
  <defs
     id="defs34" />
  <sodipodi:namedview
     pagecolor="#ffffff"
     bordercolor="#666666"
     borderopacity="1"
     objecttolerance="10"
     gridtolerance="10"
     guidetolerance="10"
     inkscape:pageopacity="0"
     inkscape:pageshadow="2"
     inkscape:window-width="1884"
     inkscape:window-height="1052"
     id="namedview32"
     showgrid="false"
     inkscape:zoom="3.4635417"
     inkscape:cx="114.1275"
     inkscape:cy="88.164631"
     inkscape:window-x="36"
     inkscape:window-y="0"
     inkscape:window-maximized="1"
     inkscape:current-layer="svg30" />
  <rect
     x="20"
     y="20"
     width="152"
     height="152"
     rx="9.9346"
     display="none"
     fill="none"
     opacity=".63"
     stroke="#b1b5bd"
     stroke-width=".99996"
     id="rect2" />
  <path
     d="M 43.017437,28.659742 C 36.914035,28.659742 32,32.863848 32,38.086243 V 168.60702 c 0,5.22217 4.913811,9.4265 11.017437,9.4265 H 131.9148 c 6.10341,0 11.01744,-4.2041 11.01744,-9.4265 V 40.297324 h -0.0491 L 128.77991,28.655275 H 43.016767 Z"
     fill="#f8c18c"
     id="path4"
     style="stroke-width:1.05283" />
  <path
     d="m 51.601196,21.21227 c -6.103402,0 -11.017437,4.204107 -11.017437,9.426501 V 161.15955 c 0,5.22217 4.913811,9.4265 11.017437,9.4265 h 88.897364 c 6.10341,0 11.01744,-4.2041 11.01744,-9.4265 V 32.849852 h -0.0491 L 137.36367,21.207804 H 51.600526 Z"
     fill="#98dc9a"
     id="path6"
     style="stroke-width:1.05283" />
  <path
     d="m 60.080729,13.971911 c -6.103403,0 -11.017437,4.204106 -11.017437,9.426501 V 153.91919 c 0,5.22217 4.913811,9.4265 11.017437,9.4265 H 148.9781 c 6.1034,0 11.01743,-4.2041 11.01743,-9.4265 V 25.609493 h -0.0491 L 145.8432,13.967444 H 60.080059 Z"
     fill="#9abeff"
     id="path8"
     style="stroke-width:1.05283" />
  <path
     d="m 160,25.608525 -14.15241,-11.642049 -0.008,10.981702 a 0.73953586,0.73953586 0 0 0 0.74392,0.74005 z"
     fill="#83868c"
     stroke-width="0"
     id="path12" />
  <path
     d="m 89.553734,89.296691 c 4.436392,0 8.037698,-3.601307 8.037698,-8.037698 0,-4.436392 -3.601306,-8.037699 -8.037698,-8.037699 -4.436392,0 -8.037698,3.601307 -8.037698,8.037699 0,4.436391 3.601306,8.037698 8.037698,8.037698 z m 0,-2.531353 c -3.079378,0 -5.506345,-2.400871 -5.506345,-5.506345 0,-3.105475 2.426967,-5.506346 5.506345,-5.506346 3.105474,0 5.506345,2.400871 5.506345,5.506346 0,3.105474 -2.400871,5.506345 -5.506345,5.506345 z"
     id="path16"
     style="fill:#fcecdc;stroke-width:0.652411" />
  <path
     d="m 100.43594,89.087919 h 4.69736 c 4.332,0 7.82893,-3.49692 7.82893,-7.828926 0,-4.332007 -3.49693,-7.828927 -7.82893,-7.828927 h -4.69736 z m 2.53136,-2.374774 V 75.80484 h 2.166 c 2.97499,0 5.29757,2.322582 5.29757,5.454153 0,3.13157 -2.32258,5.454152 -5.29757,5.454152 z"
     id="path18"
     style="fill:#fcecdc;stroke-width:0.652411" />
  <path
     d="m 123.06154,82.276753 c 1.95723,-0.417543 3.39254,-2.139907 3.39254,-4.253717 0,-2.557449 -1.98333,-4.59297 -4.51469,-4.59297 h -6.13265 v 15.657853 h 2.55744 v -6.576298 h 2.16601 l 4.14933,6.576298 h 2.87061 z m -4.69736,-1.983328 V 75.80484 h 3.26206 c 1.33092,0 2.32258,0.913375 2.32258,2.244293 0,1.330917 -0.99166,2.244292 -2.32258,2.244292 z"
     id="path20"
     style="fill:#fcecdc;stroke-width:0.652411" />
  <rect
     x="81.698914"
     y="94.307205"
     width="45.668941"
     height="3.2620528"
     ry="1.3048413"
     stroke-width="0"
     id="rect24"
     style="fill:#fcecdc" />
  <rect
     x="81.698914"
     y="100.83292"
     width="35.882881"
     height="3.2620528"
     ry="1.3048413"
     stroke-width="0"
     id="rect26"
     style="fill:#fcecdc" />
</svg>

<svg width="192" height="192" version="1.1" viewBox="0 0 192 192" xmlns="http://www.w3.org/2000/svg">
 <rect x="20" y="20" width="152" height="152" rx="9.9346" display="none" fill="none" opacity=".63" stroke="#b1b5bd" stroke-width=".99996"/>
 <g stroke-width="0">
  <path d="m43.017 28.66c-6.1034 0-11.017 4.2041-11.017 9.4265v130.52c0 5.2222 4.9138 9.4265 11.017 9.4265h88.897c6.1034 0 11.017-4.2041 11.017-9.4265v-128.31h-0.0491l-14.103-11.642h-85.763z" fill="#f8c18c"/>
  <path d="m51.601 21.212c-6.1034 0-11.017 4.2041-11.017 9.4265v130.52c0 5.2222 4.9138 9.4265 11.017 9.4265h88.897c6.1034 0 11.017-4.2041 11.017-9.4265v-128.31h-0.0491l-14.103-11.642h-85.763z" fill="#98dc9a"/>
  <path d="m60.081 13.972c-6.1034 0-11.017 4.2041-11.017 9.4265v130.52c0 5.2222 4.9138 9.4265 11.017 9.4265h88.897c6.1034 0 11.017-4.2041 11.017-9.4265v-128.31h-0.0491l-14.103-11.642h-85.763z" fill="#9abeff"/>
 </g>
 <path d="m160 25.609-14.152-11.642-8e-3 10.982a0.73954 0.73954 0 0 0 0.74392 0.74005z" fill="#83868c" stroke-width="0"/>
 <g fill="#fcecdc" stroke-width=".65241">
  <path d="m89.554 89.297c4.4364 0 8.0377-3.6013 8.0377-8.0377 0-4.4364-3.6013-8.0377-8.0377-8.0377s-8.0377 3.6013-8.0377 8.0377c0 4.4364 3.6013 8.0377 8.0377 8.0377zm0-2.5314c-3.0794 0-5.5063-2.4009-5.5063-5.5063 0-3.1055 2.427-5.5063 5.5063-5.5063 3.1055 0 5.5063 2.4009 5.5063 5.5063 0 3.1055-2.4009 5.5063-5.5063 5.5063z"/>
  <path d="m100.44 89.088h4.6974c4.332 0 7.8289-3.4969 7.8289-7.8289 0-4.332-3.4969-7.8289-7.8289-7.8289h-4.6974zm2.5314-2.3748v-10.908h2.166c2.975 0 5.2976 2.3226 5.2976 5.4542 0 3.1316-2.3226 5.4542-5.2976 5.4542z"/>
  <path d="m123.06 82.277c1.9572-0.41754 3.3925-2.1399 3.3925-4.2537 0-2.5574-1.9833-4.593-4.5147-4.593h-6.1326v15.658h2.5574v-6.5763h2.166l4.1493 6.5763h2.8706zm-4.6974-1.9833v-4.4886h3.2621c1.3309 0 2.3226 0.91338 2.3226 2.2443 0 1.3309-0.99166 2.2443-2.3226 2.2443z"/>
 </g>
 <rect x="81.699" y="94.307" width="45.669" height="3.2621" ry="1.3048" fill="#fcecdc" stroke-width="0"/>
 <rect x="81.699" y="100.83" width="35.883" height="3.2621" ry="1.3048" fill="#fcecdc" stroke-width="0"/>/&gt;
</svg>
